X:426
T:Barrel of Knives
O:england
R:Jig
C:Roger Landes
M:6/8
L:1/8
K:DMix
A|ced cAG|ABA g/2g/2gg|ced cAG|ABA FDD|
ced cAG|ABA g/2g/2gg|bag fdc|dAG FDD:||
g/2g/2gg edc|ded cAF|G2B dBG|ABA FDD|
g/2g/2gg edc|ded ceg|bag fdc|dAG FDD:||


